ui/assets/img/enterprise/sg-ent-gh-e-logo.svg

<?xml version="1.0" encoding="UTF-8"?>
<svg width="223px" height="32px" viewBox="0 0 223 32" version="1.1" xmlns="http://www.w3.org/2000/svg" xmlns:xlink="http://www.w3.org/1999/xlink">
    <!-- Generator: Sketch 43.1 (39012) - http://www.bohemiancoding.com/sketch -->
    <title>gh-e-logo</title>
    <desc>Created with Sketch.</desc>
    <defs></defs>
    <g id="Page-1" stroke="none" stroke-width="1" fill="none" fill-rule="evenodd">
        <g id="sg-enterprise" transform="translate(-250.000000, -653.000000)" fill-rule="nonzero" fill="#5D7EAC">
            <g id="Group-6" transform="translate(0.000000, 304.000000)">
                <g id="Group-27" transform="translate(250.000000, 192.000000)">
                    <g id="Group-5" transform="translate(0.000000, 146.000000)">
                        <g id="gh-e-logo" transform="translate(0.000000, 11.000000)">
                            <path d="M109.006452,12.6967742 L98.8903226,12.6967742 L98.8903226,21.7806452 L110.141935,21.7806452 L110.141935,23.7419355 L96.7225806,23.7419355 L96.7225806,0.825806452 L110.03871,0.825806452 L110.03871,2.78709677 L98.8903226,2.78709677 L98.8903226,10.8387097 L109.006452,10.8387097 L109.006452,12.6967742 Z M122.425806,12.5935484 C122.425806,10.6322581 121.290323,10.0129032 119.329032,10.0129032 C117.367742,10.0129032 116.335484,10.3225806 115.2,10.9419355 L115.2,23.7419355 L113.032258,23.7419355 L113.032258,8.46451613 L114.270968,8.46451613 L114.683871,9.70322581 C116.129032,8.67096774 117.677419,8.15483871 119.329032,8.15483871 C122.941935,8.15483871 124.490323,9.80645161 124.490323,12.6967742 L124.490323,23.7419355 L122.322581,23.7419355 L122.322581,12.5935484 L122.425806,12.5935484 Z M136.051613,23.8451613 C135.63871,23.9483871 135.122581,23.9483871 134.709677,23.9483871 C132.129032,23.9483871 129.858065,22.8129032 129.858065,19.8193548 L129.858065,10.116129 L126.76129,10.116129 L126.76129,9.18709677 L129.858065,8.25806452 L129.858065,4.12903226 L132.025806,3.50967742 L132.025806,8.36129032 L136.774194,8.36129032 L136.774194,10.0129032 L132.025806,10.0129032 L132.025806,19.6129032 C132.025806,21.4709677 133.058065,22.1935484 134.916129,22.1935484 C135.329032,22.1935484 135.741935,22.1935484 136.154839,22.0903226 L136.154839,23.8451613 L136.051613,23.8451613 Z M144.825806,8.15483871 C149.987097,8.15483871 150.606452,11.6645161 150.606452,16.1032258 L150.606452,17.0322581 L140.490323,17.0322581 C140.593548,19.716129 141.316129,22.0903226 144.722581,22.0903226 C146.890323,22.0903226 148.232258,21.883871 149.780645,21.2645161 L149.780645,23.1225806 C148.025806,23.8451613 146.270968,24.0516129 144.722581,24.0516129 C139.56129,24.0516129 138.322581,20.5419355 138.322581,16.1032258 C138.425806,11.6645161 139.664516,8.15483871 144.825806,8.15483871 Z M140.593548,15.2774194 L148.541935,15.2774194 C148.541935,12.5935484 148.43871,10.0129032 144.825806,10.0129032 C141.316129,10.0129032 140.593548,12.5935484 140.593548,15.2774194 Z M162.167742,10.2193548 C161.754839,10.116129 161.135484,10.0129032 160.309677,10.0129032 C158.245161,10.0129032 157.006452,10.3225806 155.870968,10.9419355 L155.870968,23.7419355 L153.703226,23.7419355 L153.703226,8.46451613 L154.941935,8.46451613 L155.354839,9.70322581 C156.8,8.67096774 158.554839,8.15483871 160.309677,8.15483871 C161.032258,8.15483871 161.548387,8.25806452 162.167742,8.25806452 L162.167742,10.2193548 Z M166.709677,22.7096774 L166.709677,31.2774194 L164.541935,31.2774194 L164.541935,8.46451613 L165.780645,8.46451613 L166.193548,9.70322581 C167.741935,8.67096774 169.290323,8.15483871 170.941935,8.15483871 C175.896774,8.15483871 177.23871,11.6645161 177.23871,16.1032258 C177.23871,20.5419355 175.896774,24.0516129 170.941935,24.0516129 C169.6,24.0516129 168.051613,23.6387097 166.709677,22.7096774 Z M175.070968,16.1032258 C175.070968,13.1096774 174.658065,10.0129032 170.941935,10.0129032 C168.980645,10.0129032 167.845161,10.3225806 166.709677,10.9419355 L166.709677,21.0580645 C167.948387,21.6774194 168.980645,21.9870968 170.941935,21.9870968 C174.658065,22.0903226 175.070968,19.0967742 175.070968,16.1032258 Z M188.696774,10.2193548 C188.283871,10.116129 187.664516,10.0129032 186.83871,10.0129032 C184.774194,10.0129032 183.535484,10.3225806 182.4,10.9419355 L182.4,23.7419355 L180.232258,23.7419355 L180.232258,8.46451613 L181.470968,8.46451613 L181.883871,9.70322581 C183.329032,8.67096774 185.083871,8.15483871 186.83871,8.15483871 C187.56129,8.15483871 188.077419,8.25806452 188.696774,8.25806452 L188.696774,10.2193548 Z M192.412903,2.27096774 C193.23871,2.27096774 193.96129,2.99354839 193.96129,3.81935484 C193.96129,4.64516129 193.23871,5.36774194 192.412903,5.36774194 C191.587097,5.36774194 190.864516,4.64516129 190.864516,3.81935484 C190.864516,2.99354839 191.587097,2.27096774 192.412903,2.27096774 Z M191.380645,20.6451613 L191.380645,8.46451613 L193.445161,8.46451613 L193.445161,20.9548387 C193.445161,21.9870968 193.754839,22.2967742 194.683871,22.2967742 L194.683871,24.0516129 C192.516129,24.0516129 191.380645,23.1225806 191.380645,20.6451613 Z M202.735484,14.9677419 C207.070968,15.3806452 208.103226,16.8258065 208.103226,19.3032258 C208.103226,21.6774194 206.554839,24.0516129 201.909677,24.0516129 C200.464516,24.0516129 198.296774,23.6387097 197.367742,23.3290323 L197.367742,21.4709677 C198.296774,21.7806452 199.741935,22.1935484 201.909677,22.1935484 C205.109677,22.1935484 205.935484,20.8516129 205.935484,19.4064516 C205.935484,17.9612903 205.522581,17.0322581 202.529032,16.8258065 C198.090323,16.4129032 197.16129,14.8645161 197.16129,12.8 C197.16129,10.6322581 198.606452,8.25806452 202.83871,8.25806452 C204.283871,8.25806452 205.935484,8.46451613 207.277419,8.98064516 L207.277419,10.8387097 C206.03871,10.4258065 204.903226,10.116129 202.83871,10.116129 C199.845161,10.116129 199.122581,11.2516129 199.122581,12.6967742 C199.225806,13.9354839 199.845161,14.6580645 202.735484,14.9677419 Z M217.187097,8.15483871 C222.348387,8.15483871 222.967742,11.6645161 222.967742,16.1032258 L222.967742,17.0322581 L212.851613,17.0322581 C212.954839,19.716129 213.677419,22.0903226 217.083871,22.0903226 C219.251613,22.0903226 220.593548,21.883871 222.141935,21.2645161 L222.141935,23.1225806 C220.387097,23.8451613 218.632258,24.0516129 217.083871,24.0516129 C211.922581,24.0516129 210.683871,20.5419355 210.683871,16.1032258 C210.787097,11.6645161 212.025806,8.15483871 217.187097,8.15483871 Z M212.851613,15.2774194 L220.8,15.2774194 C220.8,12.5935484 220.696774,10.0129032 217.083871,10.0129032 C213.574194,10.0129032 212.954839,12.5935484 212.851613,15.2774194 Z M17.1354839,10.3225806 L9.70322581,10.3225806 C9.49677419,10.3225806 9.29032258,10.4258065 9.29032258,10.6322581 L9.29032258,14.2451613 C9.29032258,14.4516129 9.49677419,14.5548387 9.6,14.5548387 L12.4903226,14.5548387 L12.4903226,19.0967742 C12.4903226,19.0967742 11.8709677,19.3032258 10.0129032,19.3032258 C7.84516129,19.3032258 4.8516129,18.4774194 4.8516129,11.9741935 C4.8516129,5.36774194 7.9483871,4.54193548 10.8387097,4.54193548 C13.316129,4.54193548 14.4516129,4.95483871 15.1741935,5.16129032 C15.3806452,5.26451613 15.5870968,5.05806452 15.5870968,4.8516129 L16.4129032,1.34193548 C16.4129032,1.23870968 16.4129032,1.13548387 16.3096774,1.03225806 C16.2064516,0.929032258 14.4516129,0 10.116129,0 C5.16129032,0 0,2.16774194 0,12.3870968 C0,22.6064516 5.88387097,24.1548387 10.8387097,24.1548387 C14.9677419,24.1548387 17.4451613,22.4 17.4451613,22.4 C17.5483871,22.2967742 17.5483871,22.1935484 17.5483871,22.0903226 L17.5483871,10.6322581 C17.5483871,10.4258065 17.3419355,10.3225806 17.1354839,10.3225806 Z M56.0516129,1.23870968 C56.0516129,1.03225806 55.9483871,0.929032258 55.7419355,0.929032258 L51.5096774,0.929032258 C51.3032258,0.929032258 51.2,1.13548387 51.2,1.23870968 L51.2,9.39354839 L44.5935484,9.39354839 L44.5935484,1.23870968 C44.5935484,1.03225806 44.3870968,0.929032258 44.283871,0.929032258 L40.0516129,0.929032258 C39.8451613,0.929032258 39.7419355,1.13548387 39.7419355,1.23870968 L39.7419355,23.3290323 C39.7419355,23.5354839 39.9483871,23.6387097 40.0516129,23.6387097 L44.283871,23.6387097 C44.4903226,23.6387097 44.5935484,23.4322581 44.5935484,23.3290323 L44.5935484,13.9354839 L51.2,13.9354839 L51.2,23.3290323 C51.2,23.5354839 51.4064516,23.6387097 51.5096774,23.6387097 L55.7419355,23.6387097 C55.9483871,23.6387097 56.0516129,23.4322581 56.0516129,23.3290323 L56.0516129,1.23870968 Z M25.2903226,4.12903226 C25.2903226,2.58064516 24.0516129,1.34193548 22.6064516,1.34193548 C21.0580645,1.34193548 19.9225806,2.58064516 19.9225806,4.12903226 C19.9225806,5.67741935 21.1612903,6.91612903 22.6064516,6.91612903 C24.0516129,6.91612903 25.2903226,5.67741935 25.2903226,4.12903226 Z M24.9806452,18.683871 L24.9806452,8.46451613 C24.9806452,8.25806452 24.7741935,8.15483871 24.6709677,8.15483871 L20.4387097,8.15483871 C20.2322581,8.15483871 20.0258065,8.36129032 20.0258065,8.56774194 L20.0258065,23.1225806 C20.0258065,23.5354839 20.3354839,23.6387097 20.6451613,23.6387097 L24.4645161,23.6387097 C24.8774194,23.6387097 24.9806452,23.4322581 24.9806452,23.1225806 L24.9806452,18.683871 Z M72.4645161,8.15483871 L68.2322581,8.15483871 C68.0258065,8.15483871 67.9225806,8.36129032 67.9225806,8.46451613 L67.9225806,19.3032258 C67.9225806,19.3032258 66.8903226,20.1290323 65.3419355,20.1290323 C63.7935484,20.1290323 63.483871,19.4064516 63.483871,17.9612903 L63.483871,8.56774194 C63.483871,8.36129032 63.2774194,8.25806452 63.1741935,8.25806452 L58.8387097,8.25806452 C58.6322581,8.25806452 58.5290323,8.46451613 58.5290323,8.56774194 L58.5290323,18.683871 C58.5290323,23.1225806 61.0064516,24.1548387 64.3096774,24.1548387 C67.0967742,24.1548387 69.2645161,22.6064516 69.2645161,22.6064516 C69.2645161,22.6064516 69.3677419,23.4322581 69.3677419,23.5354839 C69.3677419,23.6387097 69.5741935,23.7419355 69.6774194,23.7419355 L72.3612903,23.7419355 C72.5677419,23.7419355 72.6709677,23.5354839 72.6709677,23.4322581 L72.6709677,8.56774194 C72.7741935,8.25806452 72.6709677,8.15483871 72.4645161,8.15483871 Z M84.1290323,7.63870968 C81.7548387,7.63870968 80.1032258,8.67096774 80.1032258,8.67096774 L80.1032258,1.23870968 C80.1032258,1.03225806 79.8967742,0.929032258 79.7935484,0.929032258 L75.5612903,0.929032258 C75.3548387,0.929032258 75.2516129,1.13548387 75.2516129,1.23870968 L75.2516129,23.3290323 C75.2516129,23.5354839 75.4580645,23.6387097 75.5612903,23.6387097 L78.4516129,23.6387097 C78.5548387,23.6387097 78.6580645,23.5354839 78.7612903,23.4322581 C78.8645161,23.3290323 78.9677419,22.4 78.9677419,22.4 C78.9677419,22.4 80.7225806,24.0516129 83.9225806,24.0516129 C87.7419355,24.0516129 90.0129032,22.0903226 90.0129032,15.2774194 C90.0129032,8.56774194 86.5032258,7.63870968 84.1290323,7.63870968 Z M82.4774194,20.0258065 C81.0322581,20.0258065 80,19.3032258 80,19.3032258 L80,12.3870968 C80,12.3870968 80.9290323,11.7677419 82.1677419,11.6645161 C83.716129,11.5612903 85.1612903,11.9741935 85.1612903,15.5870968 C85.1612903,19.4064516 84.4387097,20.1290323 82.4774194,20.0258065 Z M37.0580645,8.0516129 L33.8580645,8.0516129 L33.8580645,3.92258065 C33.8580645,3.71612903 33.7548387,3.71612903 33.5483871,3.71612903 L29.2129032,3.71612903 C29.0064516,3.71612903 29.0064516,3.81935484 29.0064516,3.92258065 L29.0064516,8.25806452 C29.0064516,8.25806452 26.8387097,8.77419355 26.7354839,8.77419355 C26.6322581,8.77419355 26.5290323,8.98064516 26.5290323,9.08387097 L26.5290323,11.7677419 C26.5290323,11.9741935 26.7354839,12.0774194 26.8387097,12.0774194 L29.0064516,12.0774194 L29.0064516,18.5806452 C29.0064516,23.4322581 32.4129032,23.9483871 34.683871,23.9483871 C35.716129,23.9483871 36.9548387,23.6387097 37.1612903,23.5354839 C37.2645161,23.5354839 37.3677419,23.3290323 37.3677419,23.2258065 L37.3677419,20.2322581 C37.3677419,20.0258065 37.1612903,19.9225806 37.0580645,19.9225806 C36.8516129,19.9225806 36.4387097,20.0258065 35.9225806,20.0258065 C34.3741935,20.0258065 33.8580645,19.3032258 33.8580645,18.3741935 L33.8580645,12.1806452 L37.0580645,12.1806452 C37.2645161,12.1806452 37.3677419,11.9741935 37.3677419,11.8709677 L37.3677419,8.46451613 C37.3677419,8.25806452 37.1612903,8.0516129 37.0580645,8.0516129 Z" id="Shape"></path>
                        </g>
                    </g>
                </g>
            </g>
        </g>
    </g>
</svg>

<svg width="223" height="32" viewBox="0 0 223 32" xmlns="http://www.w3.org/2000/svg"><title>gh-e-logo</title><desc>Created with Sketch.</desc><path d="M109.006 12.697h-10.116v9.084h11.252v1.961h-13.419v-22.916h13.316v1.961h-11.148v8.052h10.116v1.858zm13.419-.103c0-1.961-1.135-2.581-3.097-2.581-1.961 0-2.994.31-4.129.929v12.8h-2.168v-15.277h1.239l.413 1.239c1.445-1.032 2.994-1.548 4.645-1.548 3.613 0 5.161 1.652 5.161 4.542v11.045h-2.168v-11.148h.103zm13.626 11.252c-.413.103-.929.103-1.342.103-2.581 0-4.852-1.135-4.852-4.129v-9.703h-3.097v-.929l3.097-.929v-4.129l2.168-.619v4.852h4.748v1.652h-4.748v9.6c0 1.858 1.032 2.581 2.89 2.581.413 0 .826 0 1.239-.103v1.755h-.103zm8.774-15.69c5.161 0 5.781 3.51 5.781 7.948v.929h-10.116c.103 2.684.826 5.058 4.232 5.058 2.168 0 3.51-.206 5.058-.826v1.858c-1.755.723-3.51.929-5.058.929-5.161 0-6.4-3.51-6.4-7.948.103-4.439 1.342-7.948 6.503-7.948zm-4.232 7.123h7.948c0-2.684-.103-5.265-3.716-5.265-3.51 0-4.232 2.581-4.232 5.265zm21.574-5.058c-.413-.103-1.032-.206-1.858-.206-2.065 0-3.303.31-4.439.929v12.8h-2.168v-15.277h1.239l.413 1.239c1.445-1.032 3.2-1.548 4.955-1.548.723 0 1.239.103 1.858.103v1.961zm4.542 12.49v8.568h-2.168v-22.813h1.239l.413 1.239c1.548-1.032 3.097-1.548 4.748-1.548 4.955 0 6.297 3.51 6.297 7.948 0 4.439-1.342 7.948-6.297 7.948-1.342 0-2.89-.413-4.232-1.342zm8.361-6.606c0-2.994-.413-6.09-4.129-6.09-1.961 0-3.097.31-4.232.929v10.116c1.239.619 2.271.929 4.232.929 3.716.103 4.129-2.89 4.129-5.884zm13.626-5.884c-.413-.103-1.032-.206-1.858-.206-2.065 0-3.303.31-4.439.929v12.8h-2.168v-15.277h1.239l.413 1.239c1.445-1.032 3.2-1.548 4.955-1.548.723 0 1.239.103 1.858.103v1.961zm3.716-7.948c.826 0 1.548.723 1.548 1.548 0 .826-.723 1.548-1.548 1.548-.826 0-1.548-.723-1.548-1.548 0-.826.723-1.548 1.548-1.548zm-1.032 18.374v-12.181h2.065v12.49c0 1.032.31 1.342 1.239 1.342v1.755c-2.168 0-3.303-.929-3.303-3.406zm11.355-5.677c4.335.413 5.368 1.858 5.368 4.335 0 2.374-1.548 4.748-6.194 4.748-1.445 0-3.613-.413-4.542-.723v-1.858c.929.31 2.374.723 4.542.723 3.2 0 4.026-1.342 4.026-2.787 0-1.445-.413-2.374-3.406-2.581-4.439-.413-5.368-1.961-5.368-4.026 0-2.168 1.445-4.542 5.677-4.542 1.445 0 3.097.206 4.439.723v1.858c-1.239-.413-2.374-.723-4.439-.723-2.994 0-3.716 1.135-3.716 2.581.103 1.239.723 1.961 3.613 2.271zm14.452-6.813c5.161 0 5.781 3.51 5.781 7.948v.929h-10.116c.103 2.684.826 5.058 4.232 5.058 2.168 0 3.51-.206 5.058-.826v1.858c-1.755.723-3.51.929-5.058.929-5.161 0-6.4-3.51-6.4-7.948.103-4.439 1.342-7.948 6.503-7.948zm-4.335 7.123h7.948c0-2.684-.103-5.265-3.716-5.265-3.51 0-4.129 2.581-4.232 5.265zm-195.716-4.955h-7.432c-.206 0-.413.103-.413.31v3.613c0 .206.206.31.31.31h2.89v4.542s-.619.206-2.477.206c-2.168 0-5.161-.826-5.161-7.329 0-6.606 3.097-7.432 5.987-7.432 2.477 0 3.613.413 4.335.619.206.103.413-.103.413-.31l.826-3.51c0-.103 0-.206-.103-.31-.103-.103-1.858-1.032-6.194-1.032-4.955 0-10.116 2.168-10.116 12.387 0 10.219 5.884 11.768 10.839 11.768 4.129 0 6.606-1.755 6.606-1.755.103-.103.103-.206.103-.31v-11.458c0-.206-.206-.31-.413-.31zm38.916-9.084c0-.206-.103-.31-.31-.31h-4.232c-.206 0-.31.206-.31.31v8.155h-6.606v-8.155c0-.206-.206-.31-.31-.31h-4.232c-.206 0-.31.206-.31.31v22.09c0 .206.206.31.31.31h4.232c.206 0 .31-.206.31-.31v-9.394h6.606v9.394c0 .206.206.31.31.31h4.232c.206 0 .31-.206.31-.31v-22.09zm-30.761 2.89c0-1.548-1.239-2.787-2.684-2.787-1.548 0-2.684 1.239-2.684 2.787 0 1.548 1.239 2.787 2.684 2.787s2.684-1.239 2.684-2.787zm-.31 14.555v-10.219c0-.206-.206-.31-.31-.31h-4.232c-.206 0-.413.206-.413.413v14.555c0 .413.31.516.619.516h3.819c.413 0 .516-.206.516-.516v-4.439zm47.484-10.529h-4.232c-.206 0-.31.206-.31.31v10.839s-1.032.826-2.581.826c-1.548 0-1.858-.723-1.858-2.168v-9.394c0-.206-.206-.31-.31-.31h-4.335c-.206 0-.31.206-.31.31v10.116c0 4.439 2.477 5.471 5.781 5.471 2.787 0 4.955-1.548 4.955-1.548s.103.826.103.929c0 .103.206.206.31.206h2.684c.206 0 .31-.206.31-.31v-14.865c.103-.31 0-.413-.206-.413zm11.665-.516c-2.374 0-4.026 1.032-4.026 1.032v-7.432c0-.206-.206-.31-.31-.31h-4.232c-.206 0-.31.206-.31.31v22.09c0 .206.206.31.31.31h2.89c.103 0 .206-.103.31-.206.103-.103.206-1.032.206-1.032s1.755 1.652 4.955 1.652c3.819 0 6.09-1.961 6.09-8.774 0-6.71-3.51-7.639-5.884-7.639zm-1.652 12.387c-1.445 0-2.477-.723-2.477-.723v-6.916s.929-.619 2.168-.723c1.548-.103 2.994.31 2.994 3.923 0 3.819-.723 4.542-2.684 4.439zm-45.419-11.974h-3.2v-4.129c0-.206-.103-.206-.31-.206h-4.335c-.206 0-.206.103-.206.206v4.335s-2.168.516-2.271.516c-.103 0-.206.206-.206.31v2.684c0 .206.206.31.31.31h2.168v6.503c0 4.852 3.406 5.368 5.677 5.368 1.032 0 2.271-.31 2.477-.413.103 0 .206-.206.206-.31v-2.994c0-.206-.206-.31-.31-.31-.206 0-.619.103-1.135.103-1.548 0-2.065-.723-2.065-1.652v-6.194h3.2c.206 0 .31-.206.31-.31v-3.406c0-.206-.206-.413-.31-.413z" fill-rule="nonzero" fill="#5D7EAC"/></svg>
